Avidclan_Website/assets/images/icons/single-tech-ic.svg

<?xml version="1.0" encoding="utf-8"?>
<!-- Generator: Adobe Illustrator 24.1.1, SVG Export Plug-In . SVG Version: 6.00 Build 0)  -->
<svg version="1.1" id="Layer_1" xmlns="http://www.w3.org/2000/svg" xmlns:xlink="http://www.w3.org/1999/xlink" x="0px" y="0px"
	 viewBox="0 0 291.4 437.2" style="enable-background:new 0 0 291.4 437.2;" xml:space="preserve">
<style type="text/css">
	.st0{fill:#007AFB;}
</style>
<g>
	<path class="st0" d="M167.8,265.5l-18.2-0.3l1.1-73.4c0-5.3-8.3-11.7-19.1-11.7c-14.6,0-19.2,8.1-19.2,11v74.2H94.2v-74.2
		c0-12.1,11.6-29.2,37.4-29.2c20.2,0,37.3,13.8,37.3,30L167.8,265.5z"/>
	<path class="st0" d="M168.9,265.4l-18.2,0l0.1-73.6c0-11.5,9.9-29.8,36.5-29.8c21.1,0,38.2,13.1,38.2,29.2v74.2h-18.2v-74.2
		c0-5-8.9-11-20-11c-13.8,0-18.3,7.8-18.3,11.6L168.9,265.4z"/>
	<path class="st0" d="M270.2,437.2l-179.9-0.5l-2.6-4.6c-3.5-6.1-7.6-10.9-12.3-14c0,0-2.9-2-7.4-5.4
		c-23.5-17.8-41.4-44.1-50.4-74.2l-6.2-22.2c-6.5-23.2,4.2-46.3,26.3-58l0-171.7c0-18.5,15.3-32,36.5-32c21.8,0,38.2,13.8,38.2,32.2
		v178.7H94.2V86.7c0-16.8-38.3-20-38.3-0.1v183.6l-5.6,2.3c-17.3,7.1-25.9,22.8-21.4,38.9l6.2,22c7.9,26.2,23.5,49.3,43.9,64.7
		c4,3,6.6,4.8,6.7,4.9c5.7,3.8,10.7,9,15,15.5l154.5,0.5c2.7-11.7,6.7-23.6,12-35.4c0.1-0.2,0.8-1.9,1.4-5
		c7.4-41.5,5.9-77.2-4.3-106.1l-0.5-1.5v-58c0-5-9.2-12.6-20.5-12.6c-6.2,0-11.2,1.7-14.3,4.8c-2.5,2.5-3.4,5.5-3.3,7.2l-0.1,53.1
		l-18.2,0l0.1-52.9c-0.1-7,3.1-14.6,8.6-20.1c4.6-4.7,13.1-10.2,27.3-10.2c20.6,0,38.8,14.4,38.8,30.9v54.8
		c10.8,31.6,12.4,69.9,4.6,113.9c-0.8,4.7-2.1,7.8-2.7,9.3c-5.8,13-9.9,26.1-12.2,38.7L270.2,437.2z"/>
	<path class="st0" d="M42.5,138.5C16.7,126.4,0,100.7,0,72.8C0,32.7,33.7,0,75,0c41.4,0,75,32.7,75,72.8c0,27.3-15.5,52.1-40.5,64.7
		l-8.2-16.3c18.8-9.5,30.5-28,30.5-48.4c0-30.1-25.5-54.6-56.8-54.6c-31.3,0-56.8,24.5-56.8,54.6c0,21.1,12.3,39.9,32,49.2
		L42.5,138.5z"/>
</g>
</svg>

<svg width="292" height="438" viewBox="0 0 292 438" fill="none" xmlns="http://www.w3.org/2000/svg">
<g clip-path="url(#clip0_493_938)">
<path d="M167.8 265.5L149.6 265.2L150.7 191.8C150.7 186.5 142.4 180.1 131.6 180.1C117 180.1 112.4 188.2 112.4 191.1V265.3H94.2V191.1C94.2 179 105.8 161.9 131.6 161.9C151.8 161.9 168.9 175.7 168.9 191.9L167.8 265.5Z" fill="#0E53BE"/>
<path d="M168.9 265.4H150.7L150.8 191.8C150.8 180.3 160.7 162 187.3 162C208.4 162 225.5 175.1 225.5 191.2V265.4H207.3V191.2C207.3 186.2 198.4 180.2 187.3 180.2C173.5 180.2 169 188 169 191.8L168.9 265.4Z" fill="#0E53BE"/>
<path d="M270.2 437.2L90.3 436.7L87.7 432.1C84.2 426 80.1 421.2 75.4 418.1C75.4 418.1 72.5 416.1 68 412.7C44.5 394.9 26.6 368.6 17.6 338.5L11.4 316.3C4.90003 293.1 15.6 270 37.7 258.3V86.6C37.7 68.1 53 54.6 74.2 54.6C96 54.6 112.4 68.4 112.4 86.8V265.5H94.2V86.7C94.2 69.9 55.9 66.7 55.9 86.6V270.2L50.3 272.5C33 279.6 24.4 295.3 28.9 311.4L35.1 333.4C43 359.6 58.6 382.7 79 398.1C83 401.1 85.6 402.9 85.7 403C91.4 406.8 96.4 412 100.7 418.5L255.2 419C257.9 407.3 261.9 395.4 267.2 383.6C267.3 383.4 268 381.7 268.6 378.6C276 337.1 274.5 301.4 264.3 272.5L263.8 271V213C263.8 208 254.6 200.4 243.3 200.4C237.1 200.4 232.1 202.1 229 205.2C226.5 207.7 225.6 210.7 225.7 212.4L225.6 265.5H207.4L207.5 212.6C207.4 205.6 210.6 198 216.1 192.5C220.7 187.8 229.2 182.3 243.4 182.3C264 182.3 282.2 196.7 282.2 213.2V268C293 299.6 294.6 337.9 286.8 381.9C286 386.6 284.7 389.7 284.1 391.2C278.3 404.2 274.2 417.3 271.9 429.9L270.2 437.2Z" fill="#0E53BE"/>
<path d="M42.5 138.5C16.7 126.4 0 100.7 0 72.8C0 32.7 33.7 0 75 0C116.4 0 150 32.7 150 72.8C150 100.1 134.5 124.9 109.5 137.5L101.3 121.2C120.1 111.7 131.8 93.2 131.8 72.8C131.8 42.7 106.3 18.2 75 18.2C43.7 18.2 18.2 42.7 18.2 72.8C18.2 93.9 30.5 112.7 50.2 122L42.5 138.5Z" fill="#0E53BE"/>
</g>
<defs>
<clipPath id="clip0_493_938">
<rect width="291.4" height="437.2" fill="white"/>
</clipPath>
</defs>
</svg>
